X:1
T:Title
%%score ( 1 2 ) { 3 | 4 }
L:1/8
Q:1/4=108
M:4/4
K:Eb
V:1 treble nm="Grand Piano, Soprano"
V:2 treble 
V:3 bass nm="Choir Pad, Sumatra, Higinbotham 1916"
V:4 bass 
V:1
 [Ec]3 [EB] [EA]2 [CE]2 | [=B,G]2 [B,F]2 [CE]4 | [_DF]3 [EG] [EA]2 [EA]2 | z2 .B2 z4 | %4
w: By~Julia~Randall~Higinbotham~(1850–1895) * * *||||
 [DB]2 D-[DA] [EG]2 [EB]2 | [DB]2 FA [EG]4 | G3 G =B2 G2 | [Gd]2 [_Gd]2 [=Gd]4 | %8
w: ||||
 [D=B]4 [D_B]3 [EB] | [Ec]2 [_Gc]2 [F_d]2 [FB]2 | G2- [_DG]2 [CA]2 GF | %11
w: |||
 [CE]2 [=B,D][CE] [Ee]2 G-[_DG] | [CA]8 |] %13
w: ||
V:2
 x8 | x8 | x8 | [CA]2 D-[Dc] [Ec]2 [EB]2 | z2 .F2 z4 | x8 | x8 | x8 | x8 | x8 | E2 z2 z2 =B,2 | %11
 z4 z2 .E2 | x8 |] %13
V:3
 A,3 G, A,2 A,2 | A,2 A,2 A,4 | A,3 B, A,2 C2 | A,2 A,2 A,2 G,2 | F,2 B,2 B,2 G,2 | B,2 B,2 B,4 | %6
 G,3 G, =B,2 G,2 | =B,2 =A,2 B,4 | G,4 B,3 B, | A,2 A,2 A,2 _D2 | B,4 A,2 A,2 | A,2 A,2 G,2 CB, | %12
 A,8 |] %13
V:4
 A,,3 B,, C,2 E,2 | D,2 D,2 E,4 | _D,3 D, C,2 A,,2 | F,2 F,2 E,2 E,2 | B,,2 B,,2 E,2 E,2 | %5
 F,2 D,2 E,4 | z8 | D,2 D,2 G,,4 | z4 A,3 G, | _G,2 E,2 _D,2 D,2 | E,2 =E,2 F,2 D,2 | %11
 E,2 F,E, E,2 E,2 | A,,8 |] %13

